X:1
T:Hortus conclusus
T:Rodrigo de Ceballos (c. 1525 - c. 1571)
T:Adapted from the "Song of Songs"
T:Hortus conclusus
T:Motet "in festo BMV"
T:Copyright © 
T:Copyright © 
T:Copyright © 
T:Copyright © 
T:Copyright © 
T:Copyright © 
T:Copyright © 
T:Copyright © 
C:Rodrigo de Ceballos (c. 1525 - c. 1571)
Z:Adapted from the "Song of Songs"
Z:Copyright ©
%%score [ 1 2 3 4 ]
L:1/8
M:2/2
K:F
V:1 treble nm="&quot;Tiple&quot;" snm="S."
V:2 treble nm="&quot;Tenor&quot;" snm="A."
V:3 treble-8 transpose=-12 nm="&quot;Contralto&quot;" snm="T."
V:4 bass nm="&quot;Bajo&quot;" snm="B."
V:1
"^First part" z8 | z8 | d8- | d8 | d8 | c8 | f8 | e8 | z4 d4- | d4 c4- | c4 B2 A2 | B4 G4 | %12
w: ||Hor-||tus|con-|clu-|sus,|so-|* ror|_ _ _|me- a|
 G4 B4- | B2 A2 A4- | A4 G4 | A8- | A8- | A8- | A8 | z8 | G8- | G8 | G8 | F8 | B8 | A8 | z4 d4- | %27
w: _ spon-|* sa me,|_ _||||||hor-||tus|con-|clu-|sus|et|
 d4 c4- | c4 B2 A2 | B4 A4- | A4 G4 | A8 | z4 d4- | d4 c4- | c4 B4 | A2 G2 A2 B2 | A4 G4- | %37
w: _ fons|_ _ sig-|na- *||tus,|et|_ fons|_ sig-|na- * * *||
 G4 ^F4 | G8 | z8 | d8- | d4 d4 | d8 | c8- | c4 B2 A2 | B4 d4 | d4 d4 | c8- | c4 B2 A2 | B8 | %50
w: |tus,||a-|* pe-|ri|mi-||hi, o|so- ror|me-||a,|
 z4 A4 | c4 c4 | d8 | A8- | A8 | z4 f4 | f4 e4 | f2 e2 d2 c2 | B4 A4- | A2 G2 G4- | G4 ^F4 | G8 | %62
w: a-|mi- ca|me-|a,|_|co-|lum- ba|me- * * *|a, me-|||a|
 z8 | z4 G4 | G4 G4 | c8- | c4 B2 A2 | B8 | A8 | d8 | z4 d4 | d4 d4 | g8- | g4 f2 e2 | f8 | %75
w: |in-|ma- cu-|la-|* ta _|me-||a,|in-|ma- cu-|la-|||
 d4 e4- | e2 d2 d4- | d4 ^c4 | d8- | d8 | d8- | d8 | d8 | F8- | F4 B4 | c4 d4 | e4 f4 | g8- | %88
w: * ta|_ _ me-||a,|_|sur-||ge,|sur-|* ge|pro- pe-|ra a-|mi-|
 g4 f2 e2 | f8 | e4 d4 | d2 c2 c4- | c4 B2 A2 | B8 | A8- | A8 | z4 d4 | d8 | d8 | z4 d4 | d8- | %101
w: * ca _|me-|||||a,|_|et|ve-|ni,|et|ve-|
 d8 | c8- | c8 | B16 ||"^Second part" z8 | z8 | d8- | d8 | d8 | z4 d4- | d4 ^c4 | d4 f4 | e4 d4- | %114
w: |||ni.|||Ve-||ni,|ve-|* ni|spon- sa|me- *|
 d4 c4- | c4 B4 | A4 G4 | B4 A4 | G4 F4 | A8 | A8 | z8 | z8 | d8 | d8 | z4 d4- | d4 ^c4 | d4 f4 | %128
w: |* a,|ve- *|* ni|spon- sa|me-|a,|||ve-|ni,|ve-|* ni|spe- ci-|
 e4 d4- | d2 c2 A4 | B8 | A4 d4 | d4 d4 | B8 | c8- | c4 B2 A2 | B4 G4 | A4 B4 | A8 | A4 e4 | %140
w: o- *|* * sa|me-|a, os-|ten- de|mi-||* * hi|fa- ci-|em tu-||am os-|
 e4 e4 | f8- | f4 e2 d2 | e4 f4 | e4 f4- | f2 e2 d4- | d4 ^c4 | d8 | z8 | z4 d4 | B4 c4 | d8 | %152
w: ten- de|mi-||hi, fa-|ci- em|_ _ tu-||am||fa-|vus dis-|ti-|
 e4 f4- | f4 e2 d2 | c4 d4- | d4 c2 B2 | A4 B4 | c8 | z8 | z4 A4 | F4 G4 | A8 | A4 B4- | B4 A2 G2 | %164
w: lans la-|* bi- *|a tu-|||a,||fa-|vus dis-|ti-|lans la-|* bi- *|
 F4 A4- | A2 G2 G4- | G4 ^F4 | G8 | z8 | z4 c4- | c4 B4 | c4 B4 | B4 B4 | A8 | G4 B4- | B4 A4 | %176
w: a tu-|||a,||mel|_ et|lac sub|lin- gua|tu-|a, mel|_ et|
 B4 F4 | A4 A4 | G8 | F4 A4- | A2 G2 G4 | G4 ^F4 | G8 | z4 B4- | B4 B4 | c4 B4 | c8 | d8- | d8 | %189
w: lac sub|lin- gua|tu-||||a,|ve-|* ni|spon- sa|me-|a,|_|
 z8 | z8 | z8 | z8 | B8- | B4 B4 | c4 B4 | c8- | c4 B2 A2 | B8 | z4 d4- | d4 d4 | d4 f4 | e4 d4- | %203
w: ||||ve-|* ni|spon- sa|me-||a,|ve-|* ni|co- ro-|* na-|
 d4 ^c4 | d4 A4- | A4 A4 | B8 | G4 A4 | G4 B4- | B2 A2 G4- | G4 ^F4 | G8 | z4 G4- | G4 G4 | G4 c4 | %215
w: * be-|ris, ve-|* ni|co-|* ro|na- *||* be-|ris,|ve-|* ni|co- ro-|
 A4 G4- | G4 ^F4 | G16 |] %218
w: na- *|* be-|ris.|
V:2
 G8- | G8 | G8 | F8 | B8 | A8 | z4 A4- | A4 G4- | G4 F2 E2 | F4 E4 | D8- | D4 B,4- | B,2 C2 D2 E2 | %13
w: Hor-||tus|con-|clu-|sus,|so-|* ror|_ _ _|me- *|a,|_ spon-||
 F8- | F4 E2 D2 | E4 E4 | D8 | A,8 | z4 F4- | F4 F4 | E4 D4 | E4 D4- | D4 C4 | D8 | z4 G4 | G4 F4 | %26
w: ||* sa|me-|a,|spon-|* sa|me- *|||a,|hor-|tus con-|
 B8- | A8 | G8 | z4 C4 | D4 D4 | D8 | F8 | A8 | G8 | F8- | F4 D4 | D8- | D8 | z4 B4- | B4 B4 | B8 | %42
w: clu-||sus,|et|fons sig-|na-|tus,|et|fons|_|* sig-|na-|tus,|a-|* pe-|ri|
 B8 | G8 | z4 G4 | G4 G4 | F8 | E8 | D8 | z4 G,4 | A,2 B,2 C2 D2 | E2 F2 G4- | G4 F2 E2 | F8 | E8 | %55
w: mi-|hi,|o|so- ror|me-||a,|a-|mi- * * *|* * ca|_ _ _|me-||
 D4 A4 | A8 | F4 G4- | G2 E2 F4 | D8 | z4 D4 | D4 D4 | G8- | G4 C2 D2 | _E2 F2 G4- | G4 ^F4 | G8 | %67
w: a, co-|lum-|ba me-||a,|in-|ma cu-|la-|* ta _|_ _ me-||a,|
 D4 G4- | G4 ^F2 E2 | ^F8 | G4 G,2 A,2 | B,2 C2 D4- | D4 ^C4 | D4 A4 | A4 A4 | B8- | B4 A4 | G8 | %78
w: in- ma-|* cu- *|la-|ta me- *|||a, in-|ma- cu-|la-|* ta|me-|
 A8 | B8- | B8 | A8 | D6 E2 | F4 G4 | A4 G4 | E4 G2 F2 | E2 D2 D4- | D4 ^C4 | D8 | z8 | A,4 B,4 | %91
w: a,|sur-||ge,|sur- ge|peo- pe-|ra a-|mi- * *|ca _ me-||a,||sur- ge|
 C6 D2 | E4 D4 | G8 | F4 E2 D2 | E8 | F8 | z4 A4 | A8 | B8 | z4 B4 | B8 | A4 G4- | G4 ^F4 | G16 || %105
w: pro- pe-|ra a-|mi-|* ca _|me-|a,|et|ve-|ni,|et|ve-|||ni.|
 G8- | G8 | G8 | z4 G4- | G4 ^F4 | G4 B4 | A8 | F8 | G6 F2 | D4 E4 | G8 | F4 B,2 C2 | %117
w: Ve-||ni,|ve-|* ni,|spon- sa|me-|a,|ve- ni|spon- sa|me-||
 D2 E2 !courtesy!^F4 | E4 D4 | E8 | D8 | z8 | G8 | G8 | z4 G4- | G4 ^F4 | G4 A4 | B6 A2 | G4 F4- | %129
w: |||a,||ve-|ni|spe-|* ci-|o- sa|me- *|a, spe-|
 F2 G2 A4- | A2 G2 G4- | G4 ^F4 | G8 | z4 G4 | G4 G4 | G8 | G4 D2 D2 | F4 G4- | G4 F4 | E8 | %140
w: * ci- o-|* sa me-||a,|os-|ten- de|mi-|hi fa- ci-|em tu-||am,|
 z4 A4 | A4 A4 | A8 | A8 | z4 A4 | F4 G4 | A8- | A4 F4 | G4 A4- | A2 G2 F2 E2 | F4 G4 | A4 B4- | %152
w: fa-|ci- em|tu-|am,|fa-|vus dis-|ti-|* lans|la- bi-||a _|tu- *|
 B4 A2 G2 | F4 G4 | A8 | z4 A4- | A4 F4 | G4 A4- | A4 G4 | F4 E4- | E2 D2 D4- | D4 C4- | %162
w: ||a,|fa-|* vus|dis- ti-|* lans|la- bi-|* a tu-||
 C4 B,2 A,2 | G,8 | A,4 F,4 | G,8 | z8 | z4 D4- | D4 G,4 | C6 D2 | E4 D4 | C8 | D4 G4- | G4 F4 | %174
w: |a,|tu- *|a,||mel|_ et|lac sub|lin- gua|tu-|a, mel|_ et|
 G8 | D4 F2 E2 | D2 C2 D4 | C4 D4 | G,8 | B,8 | D8- | D8 | z8 | G8- | G4 G4 | G4 F4 | G8 | A8 | %188
w: lac|sub _ _|lin- * *|* gua|tu-||a,|_||ve-|* ni|spon- sa|me-|a,|
 B8- | B4 G4 | A4 B4 | G8- | G4 ^F4 | z4 G4- | G4 G4 | G4 G4 | G8 | G8 | z4 G4- | G4 G4 | B8- | %201
w: ve-|* ni|spon- sa|me-|* a,|ve-|* ni|spon- sa|me-|a,|ve-|* ni|co-|
 B4 A4 | B8 | G8- | G4 ^F2 E2 | ^F8 | G8 | z8 | z4 G,4- | G,4 G,4 | B,4 A,4 | B,2 C4 B,2 | C8 | %213
w: * ro-|na-|||be-|ris,||ve-|* ni|co- ro-|na- * be-|ris,|
 z4 _E4- | E4 D4 | _E8 | D8 | D16 |] %218
w: co-|* ro-|na-|be-|ris.|
V:3
 z8 | z8 | z8 | z8 | z8 | z8 | z8 | z8 | z8 | z8 | z8 | z8 | d8- | d8 | d8 | c8 | f8 | e8 | %18
w: ||||||||||||Hor-||tus|con-|clu-|sus,|
 z4 d4- | d4 c4- | c4 B4 | c4 B4- | B4 A2 G2 | A4 d4- | d4 B4 | c4 d4 | G2 A2 B2 c2 | d2 e2 f4 | %28
w: so-|* ror|_ _|me- *||a, spon-|* sa|me- *|a, _ _ _|_ _ _|
 e4 d2 c2 | d2 e2 f4- | f2 e2 d4- | d4 ^c4 | d8 | z8 | z4 d4- | d4 (c4 | c4) B4 | A8 | G8 | g8- | %40
w: hor- * *|tus _ con-|* * clu-||sus||et|_ fons|_ sig-|na-|tus,|a-|
 g4 g4 | g8 | f8 | _e8 | d8 | z4 G4 | B4 B4 | c8 | G8 | d4 d4 | d4 c4- | c2 B2 A2 G2 | B4 A4 | d8 | %54
w: * pe-|ri|mi-||hi,|o|so- ror|me-|a,|a- mi-|ca me-||||
 A8 | z4 d4 | d4 c4 | d2 c2 B2 A2 | G4 c4- | c4 B4 | A8 | G4 d4 | d4 d4 | _e8- | e4 d4 | c8 | %66
w: a,|co-|lum- ba|me- * * *|a, me-|||a, in-|ma- cu-|la-|* ta|me-|
 d4 G4 | G4 G4 | d8 | A4 d4- | d2 c2 B2 A2 | G4 A4 | G8 | z4 d4 | d4 d4 | g8- | g4 f4 | e8 | d8 | %79
w: a, in-|ma- cu-|la-|ta me-|||a,|in-|ma- cu-|la-|* ta|me-|a,|
 g8 | d4 g4- | g4 f2 e2 | f8 | z8 | d8 | c4 B4- | B4 A4 | G8 | z4 A4- | A4 B4 | c4 d4 | e4 f4 | %92
w: sur-|||ge,||sur-|ge pro-|* pe-|ra,|sur-|* ge|pro- pe-|ra a-|
 g6 f2 | e2 d2 d4- | d4 ^c2 B2 | ^c8 | d8 | z4 f4 | f8 | g8 | z4 g4- | g4 f4- | f4 _e2 d2 | c8 | %104
w: mi- *|ca _ me-|||a,|et|ve-|ni,|et|_ ve-|||
 d16 || z8 | z8 | z8 | z8 | z8 | z8 | z8 | z8 | z8 | z8 | d8- | d8 | d8 | z4 d4- | d4 ^c4 | d4 f4 | %121
w: ni.|||||||||||Ve-||ni,|ve-|* ni|spon- sa|
 e4 d4- | d4 c2 B2 | B8 | A8 | z8 | z8 | z8 | z4 d4 | d4 d4 | G8 | d8- | d4 B4 | d4 d4 | _e8 | d8 | %136
w: me- *|||a,||||os-|ten- de|mi-|hi|_ fa-|ci- em|tu-|am,|
 z4 B4 | A4 G4 | d8- | d4 ^c2 =B2 | ^c8 | d8- | d4 c4 | c8- | c8 | d8 | e8 | d8 | z8 | z8 | z8 | %151
w: os-|ten- de|mi-||hi|fa-|* ci-|em|_|tu-||am,||||
 z4 d4 | B4 c4 | d8 | e4 f4 | f4 e2 d2 | c4 d4 | c8 | F4 d4 | d4 c4 | d8 | e8 | z4 d4- | d4 c4 | %164
w: fa-|vus dis-|ti-|lans la-|* bi- a|tu- *||a, la-|bi- a|tu-|a,|mel|_ et|
 d4 A4 | B4 B4 | A8 | G8 | z4 g4- | g4 f4 | g4 G4 | A4 c4 | G2 A2 B2 c2 | d8- | d8 | z8 | z8 | %177
w: lac sub|lin- gua|tu-|a,|mel|_ et|lac sub|lin- gua|tu- * * *|a,|_|||
 z4 d4- | d4 c4 | d4 A4 | B4 B4 | A8 | G8- | G8- | G8 | z8 | z8 | z8 | z4 B4- | B4 B4 | c4 B4 | %191
w: mel|_ et|lac sub|lin- gua|tu-|a,|_|||||ve-|* ni|spon- sa|
 c8 | d8 | z4 d4- | d4 d4 | _e4 d4 | _e8 | d8 | z4 d4- | d4 d4 | g8- | g4 f4 | g8 | e8 | d8 | %205
w: me-|a,|ve-|* ni|spon- sa|me-|a,|ve-|* ni|co-|* ro-|na-|be-|ris,|
 z4 d4- | d4 d4 | d4 f4 | _e4 d4- | d4 c4 | d8 | z4 G4- | G4 G4 | c8- | c4 B4 | c8 | A8 | G16 |] %218
w: ve-|* ni|co- ro-|na- *|* be-|ris,|ve-|* ni|co-|* ro-|na-|be-|ris.|
V:4
 z8 | z8 | z8 | z8 | z8 | z8 | z8 | z8 | z8 | z8 | G,8- | G,8 | G,8 | F,8 | B,8 | A,8 | z4 D4- | %17
w: ||||||||||Hor-||tus|con-|clu-|sus,|so-|
 D4 C4 | D4 D,4 | F,8 | G,8 | C,4 D,4 | _E,8 | D,8 | G,8 | z8 | z8 | z8 | G,8 | G,4 F,4 | B,8 | %31
w: * ror|me- *|a,|spon-|sa _|me-||a,||||hor-|tus con-|clu-|
 A,8 | z4 D,4 | F,4 F,4 | G,8 | D,4 F,4 | F,4 G,4 | D,8 | G,8- | G,8 | z8 | z4 G,4 | B,4 B,4 | C8 | %44
w: sus|et|fons sig-|na-|tus, et|fons sig-|na-|tus,|_||o|so- ror|me-|
 G,8- | G,8 | z8 | z8 | z4 G,4 | G,4 G,4 | F,8 | E,8 | D,8 | z4 D4 | D4 C4 | D8 | A,8 | z4 G,4 | %58
w: a,|_|||a-|mi- ca|me-||a,|co-|lum- ba|me-|a,|co-|
 G,4 F,4 | G,8 | D,8 | z4 G,4 | G,4 G,4 | C8- | C4 B,4 | A,8 | G,8 | z8 | D,8 | D,4 D,4 | G,8- | %71
w: lum- ba|me-|a,|in-|ma- cu-|la-|* ta|me-|a,||in-|ma- cu-|la-|
 G,4 F,4 | E,8 | D,8- | D,8 | z8 | z8 | z8 | z8 | G,8- | G,8 | D8 | z4 D,4- | D,4 E,4 | F,4 G,4 | %85
w: * ta|me-|a,|_|||||sur-||ge,|sur-|* ge|pro- pe-|
 A,4 G,4 | G,4 F,4 | E,8 | D,8- | D,8 | z8 | A,8 | G,8 | G,8 | A,8- | A,8 | D,8 | z4 D4 | D8 | %99
w: ra a-|mi- ca|me-|a,|_||a-|mi-|ca|me-||a,|et|ve-|
 G,8 | z4 G,4 | B,8 | C8 | A,8 | G,16 || z8 | z8 | z8 | z8 | z8 | z8 | z8 | z8 | G,8- | G,8 | G,8 | %116
w: ni|et|ve-|||ni.|||||||||Ve-||ni,|
 z4 G,4- | G,4 ^F,4 | G,4 B,4 | A,8 | D,8 | G,8- | G,4 C,4 | G,8- | G,8 | D,8 | z8 | z8 | z8 | z8 | %130
w: ve-|* ni|spon- sa|me-|a,|spon-|* sa|me-||a,|||||
 z8 | z8 | G,8 | G,4 G,4 | C,8 | G,8- | G,8 | z8 | z8 | A,8 | A,4 A,4 | D,8 | A,8- | A,4 F,4 | %144
w: ||os-|ten- de|mi-|hi|_|||os-|ten- de|mi-|hi|_ fa-|
 A,4 A,4 | B,8 | A,8 | z4 D4 | B,4 C4 | D8 | D4 _E4 | D2 C2 C2 B,2 | G,4 F,4 | B,8 | A,8- | A,8 | %156
w: ci- em|tu-|am,|fa-|vus dis-|ti-|lans la-||bi- a|tu-|a,|_|
 z8 | z4 A,4 | F,4 G,4 | A,8 | B,8 | A,8 | F,4 G,4 | _E,8 | D,8 | z4 D4- | D4 C4 | B,4 G,4 | %168
w: |fa-|vus dis-|ti-|lans|la-|bi- a|tu-|a,|mel|_ et|lac sub-|
 B,4 B,4 | A,8 | G,8 | z8 | z8 | z8 | G,8- | G,4 F,4 | G,4 D,4 | F,4 F,4 | _E,8 | D,8- | D,8 | z8 | %182
w: lin- gua|tu-|a,||||mel|_ et|lac sub|lin- gua|tu-|a,|_||
 z8 | D8- | D4 D4 | _E4 D4 | _E8 | D8 | G,8- | G,4 G,4 | F,4 G,4 | _E,8 | D,8 | z4 G,4- | G,4 G,4 | %195
w: |ve-|* ni|spon- sa|me-|a,|ve-|* ni|spon- sa|me-|a,|ve-|* ni|
 C,4 G,4 | C,8 | G,8- | G,8- | G,8- | G,8 | z8 | z8 | z8 | z4 D,4- | D,4 D,4 | G,8- | G,4 F,4 | %208
w: spon- sa|me-|a,|_||||||ve-|* ni|co-|* ro-|
 G,8 | _E,8 | D,8 | G,8 | C,8 | C,8 | G,8 | C,8 | D,8 | G,16 |] %218
w: na-|be-|ris,|ve-|ni|co-|ro-|na-|be-|ris.|

